X: 33131
T: Princess Charlotte's Favourite
R: polka
M: 2/4
K: Gmajor
|:d|Bd dg|e2 dc|B2 GA/B/|AD Dd|
Bd dg|fe dc|BG AF|G2 G:|
|:A|BG GB|cA Ac|BG GB|AD Dd|
[1 BG GB|cA Ac|BG AF|G2 G:|
[2 BG dB|cA ec|BG AF|G2 G||

